X:2910
T:Ross Meor
P:The Ury Water
C:J. Scott Skinner
R:Strathspey (8x32)
B:RSCDS 29-10
Z:Anselm Lingnau <anselm@strathspey.org>
M:C
L:1/8
K:C
G|"C"e>d c>B "F"A>G A>c|"C"G<E"Am"C>E "G7"D3 G|\
  "C"e>d c>B "F"A>G A>c|"C"G>c "G7"d>B "C"c3 G|
  "C"e>d c>B "F"A>G A>c|"C"G<E "F#o"C>E "G7"D3 G|\
  "C"c>d c>B "F"A>G A>c|"C"G<E "G7"D>E "C"C3||
G//F//E//D//|"C"C>D E>G "F"A>G A>c|"C"G<E "Am"C>E "G7"D3 G,|\
  "C"C>D "C7"E>G "F"A>G A>c|"C"G<E "G7"D>E "C"C3 E|
  "C"C>D E>G "F"A>G A>c|"C"G<E "F#o"C>E "G7"D3 c/d/|\
  "C"e>g "F"a>c' "C"g>e "F"d>c|"C"A>G "G7"d>e "C"c3|]
